file/prague-zoo.svg

<svg clip-rule="evenodd" fill-rule="evenodd" stroke-linejoin="round" stroke-miterlimit="1.41421" viewBox="0 0 560 400" xmlns="http://www.w3.org/2000/svg"><g fill-rule="nonzero" transform="matrix(1.37916 0 0 1.37916 -28.9238 -31.6947)"><path d="m248.7 194.2c2-.2 3.6 2.2 3.6 2.2 1.8 1.9 3.9 10.3 3.5 24.1-.2 13.8-19.3 25.4-25.2 25.4-2.4 0-8.7-.9-18.7-17.6s4.6-38.2 6.2-40.4c1.5-2.3 3.2-2.3 4.7-2.1 1.9.3 4 4.9 5.2 6.7 2.2 3.2-2.8 9.2-4.4 11.3-1.5 2.2-.6 5.3-.4 6.5.2 1 .7 1.9 2.3 4.8 1.8 3 3.6 6.2 4.7 7.7s6.8-1.7 8.5-3.3c1.7-1.7 0 0 2.8-2.7 2.7-2.7 3.2-4.3 3-6.1s-.2-3.4-1.5-5.8-2.3-5.5-1.3-7.5c0 .2 1.3-2.4 7-3.2" fill="#f7931e"/><path d="m248.5 92.4c3.2 8.5 6.3 10.6 9.7 19 2.3 5.6 5.3 9.6 9.5 14.1 1.9 2.1 3.6 10.5 3.9 10.2-1.1 1.5-13.4-13.1-14.8-14.9-1.5-2-13.1-12-16-6.5-4 7.7-7.4 15.3-12.5 23.8-1.1 1.7-1.5 4-2.2 5.8-.8 2.5-3.2 3.6-4.6 5.7 0 0-6.4 8.6-5.4 5.8 1.3-3.6 1.2-5.6 1.2-5.6.1-2.3 0-6.3.6-8.4 2.5-8.7 9.4-16.7 10.9-25.9.5-3 1.9-8.3-2.7-8.7-4.2-.3-8.5-.8-12.7-1-4.9-.2-7.7 2.5-12.4 1.1-3.3-1-8.3-.3-11.2-2.1.2.1 5.3-1.4 6.1-1.8 2.9-1.2 5.4-3.2 8.7-3.2 5 .2 8.4-1 13.4-2 4.5-.7 28.6-12.6 30.5-5.4" fill="#ef4144"/><path d="m179.9 162.8s9.2 2 13.4 5.9c4.1 4 19.4-.6 14-12.1-5.4-11.6-8.8-13.4-7.4-18.1 0 0 3.5-12 8.4-14.3 5-2.3 3.2-9.1-.2-9.4-3.4-.2-6.2 1.5-6.5 5.7-.2 4.2-2.3 10.5-5.9 11.8s-5.4 1.5-7.9-4.4c-2.5-5.8-6.3-9.7-4.7-13.6s-5.3-8.8-8.7-6.4c-5 3.5-3.2 6.9.3 9.4 3.6 2.4 10.9 12.9 10 16.5s-2.6 6.8-6.2 5c-3.5-1.9-8.5-3.4-9.6-5.8-1.1-2.3-1.4-5.6-5.8-4.1-4.5 1.5-6.2 6.4.8 8.5 6.9 2.1 14 4.5 14.4 10.9s-1.8 10-9.9 10c-8.1.2-11.7-5.8-13.4 2.3-1.7 8.3 6.7 5.2 12.7 3.2 5.8-2 12.2-1 12.2-1" fill="#0db14b"/><path d="m256.4 185.2s2.8-1.4 10.9-1 11.3-1.9 14.1-3.1c2.8-1.1 2.6-1.5.7-1.7-2-.2-11.6-2.6-14.3-2.1-2.8.6-12.1-5.3-8.4-4.4 6.9 1.9 9.6 2.1 17.6-1.1 8.1-3.2 19.7-6.7 19.5-8.6s-7.3.2-12.7 0c-5.4-.3-10 1.2-12.4 1-2.3-.2-.8-2.8 1.4-2.9s8.4-1.3 12.2-4.2c3.7-2.9 6.6-4.5 7.5-5.8 1-1.1.1-.8-3.2-.5-3.2.2-14.3 2-18.9 4-4.6 1.9-10.6.6-7-1.2s12.1-4.4 15.3-7.5c3.2-3.2 4.5-2.9 3.2-3.2-1.4-.3-5.2.6-8.1.8-3 .2-17.3 4-23.2 11.1-5.9 7.2-4.4 1.1-3.5-1.8 1-2.9.4-4.5 1.4-10 1-5.6 3.2-5.6 3.4-7.9.2-2.7-2.3 1.1-7.5 3.6s-8.8 10.3-11.9 19.3c-3.1 8.9-4 7-3.9 11.4.2 3.7-2.3 6.1 1.5 10.9 4.3 4.8 16.2 7 26.3 4.9" fill="#008ed0"/><g fill="#ffcb05"><path d="m195.3 209.8s-4.7-1.2-10.9-.4-8.8-1.8-8.9-5.5-.3-4.1-2.3-6.1-2.2-3.5.7-7.9c2.8-4.4 3.9-7.5 5.5-10.2 1.7-2.7 5.1-7.5 9.7-4.6 3.3 2.1 2.4 5 5.4 9.6 3.9 6.2 1.9 5.3 4.6 9.2 2.7 3.7 5.2 5.4 4.1 10.9-.8 5.5-6.3 5.3-7.9 5"/><path d="m183.5 227.4s-3.7.8-5-1.4c-1.3-2.3-2.2-7.3 1.5-9.8 3.6-2.5 8.1-4.5 10.3-2.2 2.2 2.4 1.1 7.5-.8 9.9-2 2.6-5 3.3-6 3.5"/><path d="m170.7 221.9s-7 3.3-9 .2c-1.9-3.2-.5-9.1 3.9-11.7s7.7-2.8 9.9 1c2.1 3.7 1 7.8-4.8 10.5"/><path d="m159.9 210.1s-5.5 1.9-7.6-1.9c-2.1-3.6.3-7.9 2.3-10 1.9-2.2 8.4-6.6 12.2-1 3.9 5.6-1.8 11.4-6.9 12.9"/><path d="m168.8 189.3s-5.3 2.9-7.9 1.3c-2.7-1.5-3.6-3.9-2.2-8 1.5-4.2 8.5-6.3 10.4-6.3s4.3.5 5.2 4.2c.8 3.6-3.1 7.3-5.5 8.8"/></g></g></svg>

<?xml version="1.0" encoding="UTF-8" standalone="no"?>
<!DOCTYPE svg PUBLIC "-//W3C//DTD SVG 1.1//EN" "http://www.w3.org/Graphics/SVG/1.1/DTD/svg11.dtd">
<svg width="100%" height="100%" viewBox="0 0 560 400" version="1.1" xmlns="http://www.w3.org/2000/svg" xmlns:xlink="http://www.w3.org/1999/xlink" xml:space="preserve" xmlns:serif="http://www.serif.com/" style="fill-rule:evenodd;clip-rule:evenodd;stroke-linejoin:round;stroke-miterlimit:1.41421;">
    <g transform="matrix(1.37916,0,0,1.37916,-28.9238,-31.6947)">
        <path d="M248.7,194.2C250.7,194 252.3,196.4 252.3,196.4C254.1,198.3 256.2,206.7 255.8,220.5C255.6,234.3 236.5,245.9 230.6,245.9C228.2,245.9 221.9,245 211.9,228.3C201.9,211.6 216.5,190.1 218.1,187.9C219.6,185.6 221.3,185.6 222.8,185.8C224.7,186.1 226.8,190.7 228,192.5C230.2,195.7 225.2,201.7 223.6,203.8C222.1,206 223,209.1 223.2,210.3C223.4,211.3 223.9,212.2 225.5,215.1C227.3,218.1 229.1,221.3 230.2,222.8C231.3,224.3 237,221.1 238.7,219.5C240.4,217.8 238.7,219.5 241.5,216.8C244.2,214.1 244.7,212.5 244.5,210.7C244.3,208.9 244.3,207.3 243,204.9C241.7,202.5 240.7,199.4 241.7,197.4C241.7,197.6 243,195 248.7,194.2" style="fill:rgb(247,147,30);fill-rule:nonzero;"/>
        <path d="M248.5,92.4C251.7,100.9 254.8,103 258.2,111.4C260.5,117 263.5,121 267.7,125.5C269.6,127.6 271.3,136 271.6,135.7C270.5,137.2 258.2,122.6 256.8,120.8C255.3,118.8 243.7,108.8 240.8,114.3C236.8,122 233.4,129.6 228.3,138.1C227.2,139.8 226.8,142.1 226.1,143.9C225.3,146.4 222.9,147.5 221.5,149.6C221.5,149.6 215.1,158.2 216.1,155.4C217.4,151.8 217.3,149.8 217.3,149.8C217.4,147.5 217.3,143.5 217.9,141.4C220.4,132.7 227.3,124.7 228.8,115.5C229.3,112.5 230.7,107.2 226.1,106.8C221.9,106.5 217.6,106 213.4,105.8C208.5,105.6 205.7,108.3 201,106.9C197.7,105.9 192.7,106.6 189.8,104.8C190,104.9 195.1,103.4 195.9,103C198.8,101.8 201.3,99.8 204.6,99.8C209.6,100 213,98.8 218,97.8C222.5,97.1 246.6,85.2 248.5,92.4" style="fill:rgb(239,65,68);fill-rule:nonzero;"/>
        <path d="M179.9,162.8C179.9,162.8 189.1,164.8 193.3,168.7C197.4,172.7 212.7,168.1 207.3,156.6C201.9,145 198.5,143.2 199.9,138.5C199.9,138.5 203.4,126.5 208.3,124.2C213.3,121.9 211.5,115.1 208.1,114.8C204.7,114.6 201.9,116.3 201.6,120.5C201.4,124.7 199.3,131 195.7,132.3C192.1,133.6 190.3,133.8 187.8,127.9C185.3,122.1 181.5,118.2 183.1,114.3C184.7,110.4 177.8,105.5 174.4,107.9C169.4,111.4 171.2,114.8 174.7,117.3C178.3,119.7 185.6,130.2 184.7,133.8C183.8,137.4 182.1,140.6 178.5,138.8C175,136.9 170,135.4 168.9,133C167.8,130.7 167.5,127.4 163.1,128.9C158.6,130.4 156.9,135.3 163.9,137.4C170.8,139.5 177.9,141.9 178.3,148.3C178.7,154.7 176.5,158.3 168.4,158.3C160.3,158.5 156.7,152.5 155,160.6C153.3,168.9 161.7,165.8 167.7,163.8C173.5,161.8 179.9,162.8 179.9,162.8" style="fill:rgb(13,177,75);fill-rule:nonzero;"/>
        <path d="M256.4,185.2C256.4,185.2 259.2,183.8 267.3,184.2C275.4,184.6 278.6,182.3 281.4,181.1C284.2,180 284,179.6 282.1,179.4C280.1,179.2 270.5,176.8 267.8,177.3C265,177.9 255.7,172 259.4,172.9C266.3,174.8 269,175 277,171.8C285.1,168.6 296.7,165.1 296.5,163.2C296.3,161.3 289.2,163.4 283.8,163.2C278.4,162.9 273.8,164.4 271.4,164.2C269.1,164 270.6,161.4 272.8,161.3C275,161.2 281.2,160 285,157.1C288.7,154.2 291.6,152.6 292.5,151.3C293.5,150.2 292.6,150.5 289.3,150.8C286.1,151 275,152.8 270.4,154.8C265.8,156.7 259.8,155.4 263.4,153.6C267,151.8 275.5,149.2 278.7,146.1C281.9,142.9 283.2,143.2 281.9,142.9C280.5,142.6 276.7,143.5 273.8,143.7C270.8,143.9 256.5,147.7 250.6,154.8C244.7,162 246.2,155.9 247.1,153C248.1,150.1 247.5,148.5 248.5,143C249.5,137.4 251.7,137.4 251.9,135.1C252.1,132.4 249.6,136.2 244.4,138.7C239.2,141.2 235.6,149 232.5,158C229.4,166.9 228.5,165 228.6,169.4C228.8,173.1 226.3,175.5 230.1,180.3C234.4,185.1 246.3,187.3 256.4,185.2" style="fill:rgb(0,142,208);fill-rule:nonzero;"/>
        <g>
            <path d="M195.3,209.8C195.3,209.8 190.6,208.6 184.4,209.4C178.2,210.2 175.6,207.6 175.5,203.9C175.4,200.2 175.2,199.8 173.2,197.8C171.2,195.8 171,194.3 173.9,189.9C176.7,185.5 177.8,182.4 179.4,179.7C181.1,177 184.5,172.2 189.1,175.1C192.4,177.2 191.5,180.1 194.5,184.7C198.4,190.9 196.4,190 199.1,193.9C201.8,197.6 204.3,199.3 203.2,204.8C202.4,210.3 196.9,210.1 195.3,209.8" style="fill:rgb(255,203,5);fill-rule:nonzero;"/>
            <path d="M183.5,227.4C183.5,227.4 179.8,228.2 178.5,226C177.2,223.7 176.3,218.7 180,216.2C183.6,213.7 188.1,211.7 190.3,214C192.5,216.4 191.4,221.5 189.5,223.9C187.5,226.5 184.5,227.2 183.5,227.4" style="fill:rgb(255,203,5);fill-rule:nonzero;"/>
            <path d="M170.7,221.9C170.7,221.9 163.7,225.2 161.7,222.1C159.8,218.9 161.2,213 165.6,210.4C170,207.8 173.3,207.6 175.5,211.4C177.6,215.1 176.5,219.2 170.7,221.9" style="fill:rgb(255,203,5);fill-rule:nonzero;"/>
            <path d="M159.9,210.1C159.9,210.1 154.4,212 152.3,208.2C150.2,204.6 152.6,200.3 154.6,198.2C156.5,196 163,191.6 166.8,197.2C170.7,202.8 165,208.6 159.9,210.1" style="fill:rgb(255,203,5);fill-rule:nonzero;"/>
            <path d="M168.8,189.3C168.8,189.3 163.5,192.2 160.9,190.6C158.2,189.1 157.3,186.7 158.7,182.6C160.2,178.4 167.2,176.3 169.1,176.3C171,176.3 173.4,176.8 174.3,180.5C175.1,184.1 171.2,187.8 168.8,189.3" style="fill:rgb(255,203,5);fill-rule:nonzero;"/>
        </g>
    </g>
</svg>
